X: 1
T: Mulhare's
M: 4/4
L: 1/8
R: reel
K: Gmaj
G2BG DGBd|g2fg edBd|e2ef edBG|Ad~d2 fdcA|
G2BG DGBd|g2fg edBd|eccB cBAG|1AD EF G2(3DEF:|2(3FED EF GABd||
|:g2bg gdBd|g2fg edBG|Ad~d2 edcd|fdad bdaf|
g2bg gdBd|g2fg edBd|eccB cBAG|1AD EF GABd:|2(3FED EF GDEF||
